client/public/img/game/shared/weapons/frag_grenade.svg

<?xml version="1.0" encoding="UTF-8" standalone="no"?>
<svg
   width="75"
   height="78"
   viewBox="0 0 75 78"
   fill="none"
   version="1.1"
   id="svg8"
   xmlns="http://www.w3.org/2000/svg"
   xmlns:svg="http://www.w3.org/2000/svg">
  <defs
     id="defs8" />
  <path
     d="M46.7563 28.1484C46.5171 28.0104 46.2113 28.0923 46.0732 28.3315L41.4051 36.4169C41.267 36.6561 41.349 36.9618 41.5881 37.0999L45.8349 39.5518L50.0859 42.0061C50.3251 42.1442 50.6309 42.0623 50.7689 41.8231L55.4371 33.7377C55.5752 33.4985 55.4932 33.1927 55.2541 33.0547L46.7563 28.1484Z"
     fill="#575946"
     stroke="#191A14"
     stroke-width="4"
     stroke-miterlimit="3.99393"
     id="path1" />
  <path
     d="M47.5426 36.5984C43.3377 34.1721 38.3404 33.5169 33.6499 34.7767C28.9593 36.0364 24.9597 39.1081 22.5305 43.3162C20.1008 47.524 19.4405 52.5236 20.6947 57.2156C21.949 61.9076 25.0151 65.9077 29.2188 68.3362C31.3009 69.5384 33.5995 70.3185 35.9836 70.6317C38.3677 70.9449 40.7905 70.7851 43.1136 70.1616C45.4367 69.538 47.6147 68.4628 49.5231 66.9975C51.4315 65.5321 53.0328 63.7053 54.2359 61.6213C55.4392 59.5374 56.2206 57.237 56.5355 54.8517C56.8503 52.4663 56.6924 50.0426 56.0709 47.719C55.4493 45.3954 54.3762 43.2173 52.913 41.3092C51.4497 39.4011 49.6248 37.8004 47.5426 36.5984Z"
     fill="#575946"
     id="path2" />
  <path
     d="M54.956 60.2426L23.3647 42.0034C23.0948 42.3909 22.8391 42.79 22.5983 43.2001L22.4635 43.4335C22.2286 43.8473 22.0108 44.2686 21.81 44.6963L53.4012 62.9355C53.6844 62.5291 53.9514 62.1107 54.2014 61.6813L54.2703 61.562C54.517 61.131 54.7457 60.6908 54.956 60.2426Z"
     fill="#404233"
     id="path3" />
  <path
     d="M63.1917 22.359C62.9955 22.6987 62.8682 23.0739 62.8171 23.463C62.7659 23.852 62.792 24.2474 62.8937 24.6265C62.9955 25.0056 63.1708 25.361 63.4099 25.6724C63.649 25.9838 63.9472 26.2451 64.2872 26.4414C64.6273 26.6377 65.0026 26.7653 65.3918 26.8167C65.7811 26.868 66.1765 26.8422 66.5557 26.7407C66.9349 26.6393 67.2903 26.4642 67.6017 26.2254C67.9131 25.9866 68.1743 25.6887 68.3705 25.349C68.5667 25.0092 68.6939 24.6341 68.7451 24.245C68.7962 23.8559 68.7702 23.4605 68.6684 23.0814C68.5667 22.7023 68.3913 22.347 68.1522 22.0356C67.9131 21.7242 67.615 21.4628 67.275 21.2665C66.9349 21.0702 66.5595 20.9427 66.1703 20.8913C65.781 20.84 65.3856 20.8657 65.0065 20.9672C64.6273 21.0686 64.2718 21.2438 63.9604 21.4826C63.6491 21.7214 63.3879 22.0192 63.1917 22.359Z"
     fill="#47443C"
     stroke="#191815"
     stroke-width="4"
     stroke-miterlimit="3.99393"
     id="path4" />
  <path
     d="M61.772 20.2374L62.3033 21.8458L65.7397 23.8298L57.6422 27.3904L55.6878 33.3042C55.6878 33.3042 46.0745 27.754 45.9433 27.6782L38.962 23.6475L50.5656 13.7674L61.772 20.2374Z"
     fill="#4E4735"
     stroke="#1B1913"
     stroke-width="4"
     stroke-miterlimit="3.99393"
     stroke-linecap="square"
     id="path5" />
  <path
     d="M43.84 19.4941L27.7847 17.3644L11.0038 34.3214L15.216 39.3587L31.7998 22.743L38.9613 23.6482L43.84 19.4941Z"
     fill="#4E4735"
     stroke="#1B1913"
     stroke-width="4"
     stroke-miterlimit="3.99393"
     id="path6" />
  <path
     d="M47.5426 36.5984C43.3377 34.1721 38.3404 33.5169 33.6499 34.7767C28.9593 36.0364 24.9597 39.1081 22.5305 43.3162C20.1008 47.524 19.4405 52.5236 20.6947 57.2156C21.949 61.9076 25.0151 65.9077 29.2188 68.3362C31.3009 69.5384 33.5995 70.3185 35.9836 70.6317C38.3677 70.9449 40.7905 70.7851 43.1136 70.1616C45.4367 69.538 47.6147 68.4628 49.5231 66.9975C51.4315 65.5321 53.0328 63.7053 54.2359 61.6213C55.4392 59.5374 56.2206 57.237 56.5355 54.8517C56.8503 52.4663 56.6924 50.0426 56.0709 47.719C55.4493 45.3954 54.3762 43.2173 52.913 41.3092C51.4497 39.4011 49.6248 37.8004 47.5426 36.5984Z"
     stroke="#191A14"
     stroke-width="4"
     stroke-miterlimit="3.99393"
     id="path7" />
  <path
     fill-rule="evenodd"
     clip-rule="evenodd"
     d="M36.5492 38.0473C42.0617 41.2299 49.1102 39.3409 52.2928 33.8284C55.4754 28.316 53.5871 21.2673 48.0746 18.0847C42.5626 14.9023 35.5137 16.7911 32.3311 22.3035C29.1484 27.816 31.0372 34.8649 36.5492 38.0473ZM38.5971 34.5003C42.1512 36.5523 46.6957 35.3353 48.7475 31.7816C50.8002 28.2261 49.5819 23.682 46.0277 21.63C42.4736 19.578 37.9291 20.795 35.8763 24.3504C33.8246 27.9042 35.0429 32.4483 38.5971 34.5003Z"
     fill="#A1A29C"
     stroke="#222220"
     stroke-width="2"
     stroke-miterlimit="3.99393"
     id="path8" />
</svg>

<svg xmlns="http://www.w3.org/2000/svg" width="75" height="78" fill="none"><path fill="#575946" stroke="#191A14" stroke-miterlimit="3.994" stroke-width="4" d="M46.756 28.148a.5.5 0 0 0-.683.183l-4.668 8.086a.5.5 0 0 0 .183.683l4.247 2.452 4.25 2.454a.5.5 0 0 0 .684-.183l4.668-8.085a.5.5 0 0 0-.183-.683z"/><path fill="#575946" d="M47.543 36.598a18.3 18.3 0 0 0-13.893-1.821 18.33 18.33 0 0 0-11.12 8.54 18.33 18.33 0 0 0-1.835 13.899 18.3 18.3 0 0 0 15.289 13.416 18.3 18.3 0 0 0 13.54-3.635A18.34 18.34 0 0 0 56.07 47.72a18.3 18.3 0 0 0-8.528-11.12"/><path fill="#404233" d="m54.956 60.243-31.591-18.24q-.405.582-.767 1.197l-.134.233q-.352.622-.654 1.263l31.591 18.24q.425-.61.8-1.255l.07-.119q.37-.647.685-1.32"/><path fill="#47443C" stroke="#191815" stroke-miterlimit="3.994" stroke-width="4" d="M63.192 22.359a2.98 2.98 0 0 0 .218 3.313 2.993 2.993 0 0 0 4.96-.323 2.987 2.987 0 0 0-1.095-4.082 2.99 2.99 0 0 0-3.315.216 3 3 0 0 0-.768.876Z"/><path fill="#4E4735" stroke="#1B1913" stroke-linecap="square" stroke-miterlimit="3.994" stroke-width="4" d="m61.772 20.237.531 1.609 3.437 1.984-8.098 3.56-1.954 5.914-9.745-5.626-6.981-4.03 11.604-9.88z"/><path fill="#4E4735" stroke="#1B1913" stroke-miterlimit="3.994" stroke-width="4" d="m43.84 19.494-16.055-2.13-16.781 16.957 4.212 5.038L31.8 22.743l7.161.905z"/><path stroke="#191A14" stroke-miterlimit="3.994" stroke-width="4" d="M47.543 36.598a18.3 18.3 0 0 0-13.893-1.821 18.33 18.33 0 0 0-11.12 8.54 18.33 18.33 0 0 0-1.835 13.899 18.3 18.3 0 0 0 15.289 13.416 18.3 18.3 0 0 0 13.54-3.635A18.34 18.34 0 0 0 56.07 47.72a18.3 18.3 0 0 0-8.528-11.12Z"/><path fill="#A1A29C" fill-rule="evenodd" stroke="#222220" stroke-miterlimit="3.994" stroke-width="2" d="M36.55 38.047c5.512 3.183 12.56 1.294 15.743-4.219 3.182-5.512 1.294-12.56-4.218-15.743S35.514 16.79 32.33 22.303s-1.294 12.562 4.218 15.744Zm2.047-3.547a7.43 7.43 0 1 0 7.43-12.87 7.43 7.43 0 1 0-7.43 12.87Z" clip-rule="evenodd"/></svg>
